static/img/kroki/8d228446f0b1b2c0d7c4f8b91ac85985.svg

<?xml version="1.0" encoding="us-ascii" standalone="no"?><svg xmlns="http://www.w3.org/2000/svg" xmlns:xlink="http://www.w3.org/1999/xlink" contentStyleType="text/css" height="925px" preserveAspectRatio="none" style="width:637px;height:925px;" version="1.1" viewBox="0 0 637 925" width="637px" zoomAndPan="magnify"><defs/><g><!--class digitalocean_kubernetes_cluster--><g id="elem_digitalocean_kubernetes_cluster"><rect codeLine="23" fill="#3D176E" height="258.1641" id="digitalocean_kubernetes_cluster" rx="2.5" ry="2.5" style="stroke:#000D19;stroke-width:0.5;" width="311" x="127" y="660.14"/><ellipse cx="142" cy="680.0345" fill="#ADD1B2" rx="11" ry="11" style="stroke:#181818;stroke-width:1.0;"/><path d="M144.9688,685.6752 Q144.3906,685.972 143.75,686.1127 Q143.1094,686.2689 142.4063,686.2689 Q139.9063,686.2689 138.5781,684.6283 Q137.2656,682.972 137.2656,679.847 Q137.2656,676.722 138.5781,675.0658 Q139.9063,673.4095 142.4063,673.4095 Q143.1094,673.4095 143.75,673.5658 Q144.4063,673.722 144.9688,674.0189 L144.9688,676.7377 Q144.3438,676.1595 143.75,675.8939 Q143.1563,675.6127 142.5313,675.6127 Q141.1875,675.6127 140.5,676.6908 Q139.8125,677.7533 139.8125,679.847 Q139.8125,681.9408 140.5,683.0189 Q141.1875,684.0814 142.5313,684.0814 Q143.1563,684.0814 143.75,683.8158 Q144.3438,683.5345 144.9688,682.9564 L144.9688,685.6752 Z " fill="#000000"/><text fill="#D9B8FF" font-family="Helvetica" font-size="17" lengthAdjust="spacing" textLength="269" x="161" y="685.9198">digitalocean_kubernetes_cluster</text><line style="stroke:#000D19;stroke-width:0.5;" x1="128" x2="437" y1="699.9291" y2="699.9291"/><text fill="#D9B8FF" font-family="sans-serif" font-size="14" font-weight="bold" lengthAdjust="spacing" textLength="178" x="138" y="721.9242">auto_upgrade_enabled</text><text fill="#D9B8FF" font-family="sans-serif" font-size="14" lengthAdjust="spacing" textLength="65" x="316" y="721.9242">: boolean</text><text fill="#D9B8FF" font-family="sans-serif" font-size="14" font-weight="bold" lengthAdjust="spacing" textLength="111" x="138" y="748.2211">cluster_status</text><text fill="#D9B8FF" font-family="sans-serif" font-size="14" lengthAdjust="spacing" textLength="48" x="249" y="748.2211">: string</text><text fill="#D9B8FF" font-family="sans-serif" font-size="14" font-weight="bold" lengthAdjust="spacing" textLength="89" x="138" y="774.5179">ha_enabled</text><text fill="#D9B8FF" font-family="sans-serif" font-size="14" lengthAdjust="spacing" textLength="65" x="227" y="774.5179">: boolean</text><text fill="#D9B8FF" font-family="sans-serif" font-size="14" font-weight="bold" lengthAdjust="spacing" textLength="104" x="138" y="800.8148">ipv4_address</text><text fill="#D9B8FF" font-family="sans-serif" font-size="14" lengthAdjust="spacing" textLength="48" x="242" y="800.8148">: string</text><text fill="#D9B8FF" font-family="sans-serif" font-size="14" font-weight="bold" lengthAdjust="spacing" textLength="152" x="138" y="827.1117">k8s_cluster_subnet</text><text fill="#D9B8FF" font-family="sans-serif" font-size="14" lengthAdjust="spacing" textLength="48" x="290" y="827.1117">: string</text><text fill="#D9B8FF" font-family="sans-serif" font-size="14" font-weight="bold" lengthAdjust="spacing" textLength="155" x="138" y="853.4086">k8s_service_subnet</text><text fill="#D9B8FF" font-family="sans-serif" font-size="14" lengthAdjust="spacing" textLength="48" x="293" y="853.4086">: string</text><text fill="#D9B8FF" font-family="sans-serif" font-size="14" font-weight="bold" lengthAdjust="spacing" textLength="132" x="138" y="879.7054">registry_enabled</text><text fill="#D9B8FF" font-family="sans-serif" font-size="14" lengthAdjust="spacing" textLength="65" x="270" y="879.7054">: boolean</text><text fill="#D9B8FF" font-family="sans-serif" font-size="14" font-weight="bold" lengthAdjust="spacing" textLength="189" x="138" y="906.0023">surge_upgrade_enabled</text><text fill="#D9B8FF" font-family="sans-serif" font-size="14" lengthAdjust="spacing" textLength="65" x="327" y="906.0023">: boolean</text></g><!--class digitalocean_resource--><g id="elem_digitalocean_resource"><rect codeLine="33" fill="#3D176E" height="74.0859" id="digitalocean_resource" rx="2.5" ry="2.5" style="stroke:#000D19;stroke-width:0.5;" width="223" x="7" y="451.9"/><ellipse cx="22" cy="471.7945" fill="#ADD1B2" rx="11" ry="11" style="stroke:#181818;stroke-width:1.0;"/><path d="M24.9688,477.4352 Q24.3906,477.732 23.75,477.8727 Q23.1094,478.0289 22.4063,478.0289 Q19.9063,478.0289 18.5781,476.3883 Q17.2656,474.732 17.2656,471.607 Q17.2656,468.482 18.5781,466.8258 Q19.9063,465.1695 22.4063,465.1695 Q23.1094,465.1695 23.75,465.3258 Q24.4063,465.482 24.9688,465.7789 L24.9688,468.4977 Q24.3438,467.9195 23.75,467.6539 Q23.1563,467.3727 22.5313,467.3727 Q21.1875,467.3727 20.5,468.4508 Q19.8125,469.5133 19.8125,471.607 Q19.8125,473.7008 20.5,474.7789 Q21.1875,475.8414 22.5313,475.8414 Q23.1563,475.8414 23.75,475.5758 Q24.3438,475.2945 24.9688,474.7164 L24.9688,477.4352 Z " fill="#000000"/><text fill="#D9B8FF" font-family="Helvetica" font-size="17" lengthAdjust="spacing" textLength="181" x="41" y="477.6798">digitalocean_resource</text><line style="stroke:#000D19;stroke-width:0.5;" x1="8" x2="229" y1="491.6891" y2="491.6891"/><text fill="#D9B8FF" font-family="sans-serif" font-size="14" font-weight="bold" lengthAdjust="spacing" textLength="27" x="18" y="513.6842">urn</text><text fill="#D9B8FF" font-family="sans-serif" font-size="14" lengthAdjust="spacing" textLength="48" x="45" y="513.6842">: string</text></g><!--class managed_kubernetes_cluster_provider--><g id="elem_managed_kubernetes_cluster_provider"><rect codeLine="36" fill="#3D176E" height="100.3828" id="managed_kubernetes_cluster_provider" rx="2.5" ry="2.5" style="stroke:#000D19;stroke-width:0.5;" width="366" x="264.5" y="438.75"/><ellipse cx="279.5" cy="458.6445" fill="#ADD1B2" rx="11" ry="11" style="stroke:#181818;stroke-width:1.0;"/><path d="M282.4688,464.2852 Q281.8906,464.582 281.25,464.7227 Q280.6094,464.8789 279.9063,464.8789 Q277.4063,464.8789 276.0781,463.2383 Q274.7656,461.582 274.7656,458.457 Q274.7656,455.332 276.0781,453.6758 Q277.4063,452.0195 279.9063,452.0195 Q280.6094,452.0195 281.25,452.1758 Q281.9063,452.332 282.4688,452.6289 L282.4688,455.3477 Q281.8438,454.7695 281.25,454.5039 Q280.6563,454.2227 280.0313,454.2227 Q278.6875,454.2227 278,455.3008 Q277.3125,456.3633 277.3125,458.457 Q277.3125,460.5508 278,461.6289 Q278.6875,462.6914 280.0313,462.6914 Q280.6563,462.6914 281.25,462.4258 Q281.8438,462.1445 282.4688,461.5664 L282.4688,464.2852 Z " fill="#000000"/><text fill="#D9B8FF" font-family="Helvetica" font-size="17" lengthAdjust="spacing" textLength="324" x="298.5" y="464.5298">managed_kubernetes_cluster_provider</text><line style="stroke:#000D19;stroke-width:0.5;" x1="265.5" x2="629.5" y1="478.5391" y2="478.5391"/><text fill="#D9B8FF" font-family="sans-serif" font-size="14" font-weight="bold" lengthAdjust="spacing" textLength="70" x="275.5" y="500.5342">endpoint</text><text fill="#D9B8FF" font-family="sans-serif" font-size="14" lengthAdjust="spacing" textLength="48" x="345.5" y="500.5342">: string</text><text fill="#D9B8FF" font-family="sans-serif" font-size="14" font-weight="bold" lengthAdjust="spacing" textLength="59" x="275.5" y="526.8311">version</text><text fill="#D9B8FF" font-family="sans-serif" font-size="14" lengthAdjust="spacing" textLength="48" x="334.5" y="526.8311">: string</text></g><!--class resource--><g id="elem_resource"><rect codeLine="40" fill="#3D176E" height="310.7578" id="resource" rx="2.5" ry="2.5" style="stroke:#000D19;stroke-width:0.5;" width="227" x="169" y="7"/><ellipse cx="237.75" cy="26.8945" fill="#ADD1B2" rx="11" ry="11" style="stroke:#181818;stroke-width:1.0;"/><path d="M240.7188,32.5352 Q240.1406,32.832 239.5,32.9727 Q238.8594,33.1289 238.1563,33.1289 Q235.6563,33.1289 234.3281,31.4883 Q233.0156,29.832 233.0156,26.707 Q233.0156,23.582 234.3281,21.9258 Q235.6563,20.2695 238.1563,20.2695 Q238.8594,20.2695 239.5,20.4258 Q240.1563,20.582 240.7188,20.8789 L240.7188,23.5977 Q240.0938,23.0195 239.5,22.7539 Q238.9063,22.4727 238.2813,22.4727 Q236.9375,22.4727 236.25,23.5508 Q235.5625,24.6133 235.5625,26.707 Q235.5625,28.8008 236.25,29.8789 Q236.9375,30.9414 238.2813,30.9414 Q238.9063,30.9414 239.5,30.6758 Q240.0938,30.3945 240.7188,29.8164 L240.7188,32.5352 Z " fill="#000000"/><text fill="#D9B8FF" font-family="Helvetica" font-size="17" lengthAdjust="spacing" textLength="71" x="263.25" y="32.7798">resource</text><line style="stroke:#000D19;stroke-width:0.5;" x1="170" x2="395" y1="46.7891" y2="46.7891"/><text fill="#D9B8FF" font-family="sans-serif" font-size="14" font-weight="bold" lengthAdjust="spacing" textLength="29" x="180" y="68.7842">age</text><text fill="#D9B8FF" font-family="sans-serif" font-size="14" lengthAdjust="spacing" textLength="66" x="209" y="68.7842">: duration</text><text fill="#D9B8FF" font-family="sans-serif" font-size="14" font-weight="bold" lengthAdjust="spacing" textLength="43" x="180" y="95.0811">atime</text><text fill="#D9B8FF" font-family="sans-serif" font-size="14" lengthAdjust="spacing" textLength="70" x="223" y="95.0811">: datetime</text><text fill="#D9B8FF" font-family="sans-serif" font-size="14" font-weight="bold" lengthAdjust="spacing" textLength="43" x="180" y="121.3779">ctime</text><text fill="#D9B8FF" font-family="sans-serif" font-size="14" lengthAdjust="spacing" textLength="70" x="223" y="121.3779">: datetime</text><text fill="#D9B8FF" font-family="sans-serif" font-size="14" font-weight="bold" lengthAdjust="spacing" textLength="14" x="180" y="147.6748">id</text><text fill="#D9B8FF" font-family="sans-serif" font-size="14" lengthAdjust="spacing" textLength="48" x="194" y="147.6748">: string</text><text fill="#D9B8FF" font-family="sans-serif" font-size="14" font-weight="bold" lengthAdjust="spacing" textLength="33" x="180" y="173.9717">kind</text><text fill="#D9B8FF" font-family="sans-serif" font-size="14" lengthAdjust="spacing" textLength="48" x="213" y="173.9717">: string</text><text fill="#D9B8FF" font-family="sans-serif" font-size="14" font-weight="bold" lengthAdjust="spacing" textLength="90" x="180" y="200.2686">last_access</text><text fill="#D9B8FF" font-family="sans-serif" font-size="14" lengthAdjust="spacing" textLength="66" x="270" y="200.2686">: duration</text><text fill="#D9B8FF" font-family="sans-serif" font-size="14" font-weight="bold" lengthAdjust="spacing" textLength="90" x="180" y="226.5654">last_update</text><text fill="#D9B8FF" font-family="sans-serif" font-size="14" lengthAdjust="spacing" textLength="66" x="270" y="226.5654">: duration</text><text fill="#D9B8FF" font-family="sans-serif" font-size="14" font-weight="bold" lengthAdjust="spacing" textLength="48" x="180" y="252.8623">mtime</text><text fill="#D9B8FF" font-family="sans-serif" font-size="14" lengthAdjust="spacing" textLength="70" x="228" y="252.8623">: datetime</text><text fill="#D9B8FF" font-family="sans-serif" font-size="14" font-weight="bold" lengthAdjust="spacing" textLength="43" x="180" y="279.1592">name</text><text fill="#D9B8FF" font-family="sans-serif" font-size="14" lengthAdjust="spacing" textLength="48" x="223" y="279.1592">: string</text><text fill="#D9B8FF" font-family="sans-serif" font-size="14" font-weight="bold" lengthAdjust="spacing" textLength="34" x="180" y="305.4561">tags</text><text fill="#D9B8FF" font-family="sans-serif" font-size="14" lengthAdjust="spacing" textLength="171" x="214" y="305.4561">: dictionary[string, string]</text></g><!--reverse link digitalocean_resource to digitalocean_kubernetes_cluster--><g id="link_digitalocean_resource_digitalocean_kubernetes_cluster"><path codeLine="52" d="M147.1213,541.9937 C165.4713,575.3737 185.14,611.15 211.84,659.71 " fill="none" id="digitalocean_resource-backto-digitalocean_kubernetes_cluster" style="stroke:#FFAF37;stroke-width:2.0;"/><polygon fill="none" points="138.45,526.22,141.8634,544.8841,152.3792,539.1033,138.45,526.22" style="stroke:#FFAF37;stroke-width:2.0;"/></g><!--reverse link managed_kubernetes_cluster_provider to digitalocean_kubernetes_cluster--><g id="link_managed_kubernetes_cluster_provider_digitalocean_kubernetes_cluster"><path codeLine="53" d="M411.3585,555.2815 C393.1685,588.1715 377.12,617.18 353.61,659.67 " fill="none" id="managed_kubernetes_cluster_provider-backto-digitalocean_kubernetes_cluster" style="stroke:#FFAF37;stroke-width:2.0;"/><polygon fill="none" points="420.07,539.53,406.108,552.3777,416.609,558.1853,420.07,539.53" style="stroke:#FFAF37;stroke-width:2.0;"/></g><!--reverse link resource to digitalocean_resource--><g id="link_resource_digitalocean_resource"><path codeLine="54" d="M196.2231,334.116 C171.0631,383.916 153.53,418.61 136.91,451.51 " fill="none" id="resource-backto-digitalocean_resource" style="stroke:#FFAF37;stroke-width:2.0;"/><polygon fill="none" points="204.34,318.05,190.8678,331.4104,201.5785,336.8216,204.34,318.05" style="stroke:#FFAF37;stroke-width:2.0;"/></g><!--reverse link resource to managed_kubernetes_cluster_provider--><g id="link_resource_managed_kubernetes_cluster_provider"><path codeLine="55" d="M369.2886,334.0949 C391.4586,377.6949 405.83,405.98 422.32,438.42 " fill="none" id="resource-backto-managed_kubernetes_cluster_provider" style="stroke:#FFAF37;stroke-width:2.0;"/><polygon fill="none" points="361.13,318.05,363.9403,336.8144,374.6369,331.3753,361.13,318.05" style="stroke:#FFAF37;stroke-width:2.0;"/></g><!--SRC=[ZPHDYzim48Rl-HM2lOK6acxR94ilsq1fBqlfzbQA6KjZHyIMp6Za9VtuxvNY9FXhazpiUH_DE_DQUAiL2YmhteiIonJ9JTnEcme8Il58P5ysjh0axh8CiljbN_ni3Ly5dg14yGMB6bbBw1C_jbhk33edthQaJo1tELblLDEU2OmB4XfkKPi2d7ja9frwnjOmQfskignFzflUtQl5yWCEC4iAwOZCvtErMFUHgrONzpuJp_etYaKxj2VBE1XpO76WBauPYTQGWqLF-gipVWEbjCd5-rRjUpCJ6QHE_NaBohv4EeF2jMqS8w7bVOMRmLQuNgbiEGf_VGsUo1YTK3hN38ML22RP-N1j3JAwH1O-DX5_9jCfUBQ9ht82XGaQI0jKq-c3IAqjmh507Ed4CR1tKNFX9fayI5iOFwAh-bqIag5mNpi7TgkpU-9y6iOPo0wfrXB7PC9SXvVzkAdpbEEbLVwDnH96j9ua7iBmP5g69xu40pcgaGIJYcmTVWrDb6XKPRNfpbo7VuMsOsqxpi4W8ieJSC1ZXNNPr80nFiTFCLBJgXkXDjr2yE84f3n-YfR3GV5LxDLJoX4V0qtft9WXRpfg6Oy1xNyssfiZyokiEfxrnx-psUpQzPpSaljjdIuPdxG-T8Fxv3y0]--></g></svg>

<svg xmlns="http://www.w3.org/2000/svg" width="637" height="925" viewBox="0 0 637 925"><rect width="311" height="258.164" x="127" y="660.14" fill="#3D176E" rx="2.5" ry="2.5" style="stroke:#000d19;stroke-width:.5"/><circle cx="142" cy="680.034" r="11" fill="#ADD1B2" style="stroke:#181818;stroke-width:1"/><path d="M144.969 685.675q-.578.297-1.219.438-.64.156-1.344.156-2.5 0-3.828-1.64-1.312-1.657-1.312-4.782t1.312-4.781q1.328-1.657 3.828-1.657.703 0 1.344.157.656.156 1.219.453v2.719q-.625-.579-1.219-.844-.594-.281-1.219-.281-1.344 0-2.031 1.078-.687 1.062-.687 3.156t.687 3.172q.688 1.062 2.031 1.062.625 0 1.219-.265.594-.282 1.219-.86z"/><text x="161" y="685.92" fill="#D9B8FF" font-family="Helvetica" font-size="17" textLength="269">digitalocean_kubernetes_cluster</text><path d="M128 699.929h309" style="stroke:#000d19;stroke-width:.5"/><text x="138" y="721.924" fill="#D9B8FF" font-family="sans-serif" font-size="14" font-weight="bold" textLength="178">auto_upgrade_enabled</text><text x="316" y="721.924" fill="#D9B8FF" font-family="sans-serif" font-size="14" textLength="65">: boolean</text><text x="138" y="748.221" fill="#D9B8FF" font-family="sans-serif" font-size="14" font-weight="bold" textLength="111">cluster_status</text><text x="249" y="748.221" fill="#D9B8FF" font-family="sans-serif" font-size="14" textLength="48">: string</text><text x="138" y="774.518" fill="#D9B8FF" font-family="sans-serif" font-size="14" font-weight="bold" textLength="89">ha_enabled</text><text x="227" y="774.518" fill="#D9B8FF" font-family="sans-serif" font-size="14" textLength="65">: boolean</text><text x="138" y="800.815" fill="#D9B8FF" font-family="sans-serif" font-size="14" font-weight="bold" textLength="104">ipv4_address</text><text x="242" y="800.815" fill="#D9B8FF" font-family="sans-serif" font-size="14" textLength="48">: string</text><text x="138" y="827.112" fill="#D9B8FF" font-family="sans-serif" font-size="14" font-weight="bold" textLength="152">k8s_cluster_subnet</text><text x="290" y="827.112" fill="#D9B8FF" font-family="sans-serif" font-size="14" textLength="48">: string</text><text x="138" y="853.409" fill="#D9B8FF" font-family="sans-serif" font-size="14" font-weight="bold" textLength="155">k8s_service_subnet</text><text x="293" y="853.409" fill="#D9B8FF" font-family="sans-serif" font-size="14" textLength="48">: string</text><text x="138" y="879.705" fill="#D9B8FF" font-family="sans-serif" font-size="14" font-weight="bold" textLength="132">registry_enabled</text><text x="270" y="879.705" fill="#D9B8FF" font-family="sans-serif" font-size="14" textLength="65">: boolean</text><text x="138" y="906.002" fill="#D9B8FF" font-family="sans-serif" font-size="14" font-weight="bold" textLength="189">surge_upgrade_enabled</text><text x="327" y="906.002" fill="#D9B8FF" font-family="sans-serif" font-size="14" textLength="65">: boolean</text><rect width="223" height="74.086" x="7" y="451.9" fill="#3D176E" rx="2.5" ry="2.5" style="stroke:#000d19;stroke-width:.5"/><circle cx="22" cy="471.795" r="11" fill="#ADD1B2" style="stroke:#181818;stroke-width:1"/><path d="M24.969 477.435q-.578.297-1.219.438-.64.156-1.344.156-2.5 0-3.828-1.64-1.312-1.657-1.312-4.782t1.312-4.781q1.328-1.656 3.828-1.656.703 0 1.344.156.656.156 1.219.453v2.719q-.625-.578-1.219-.844-.594-.281-1.219-.281-1.343 0-2.031 1.078-.687 1.062-.687 3.156t.687 3.172q.688 1.062 2.031 1.062.625 0 1.219-.265.594-.281 1.219-.86z"/><text x="41" y="477.68" fill="#D9B8FF" font-family="Helvetica" font-size="17" textLength="181">digitalocean_resource</text><path d="M8 491.689h221" style="stroke:#000d19;stroke-width:.5"/><text x="18" y="513.684" fill="#D9B8FF" font-family="sans-serif" font-size="14" font-weight="bold" textLength="27">urn</text><text x="45" y="513.684" fill="#D9B8FF" font-family="sans-serif" font-size="14" textLength="48">: string</text><rect width="366" height="100.383" x="264.5" y="438.75" fill="#3D176E" rx="2.5" ry="2.5" style="stroke:#000d19;stroke-width:.5"/><circle cx="279.5" cy="458.644" r="11" fill="#ADD1B2" style="stroke:#181818;stroke-width:1"/><path d="M282.469 464.285q-.578.297-1.219.438-.64.156-1.344.156-2.5 0-3.828-1.64-1.312-1.657-1.312-4.782t1.312-4.781q1.328-1.656 3.828-1.656.703 0 1.344.156.656.156 1.219.453v2.719q-.625-.579-1.219-.844-.594-.281-1.219-.281-1.344 0-2.031 1.078-.687 1.062-.687 3.156t.687 3.172q.688 1.062 2.031 1.062.625 0 1.219-.265.594-.281 1.219-.86z"/><text x="298.5" y="464.53" fill="#D9B8FF" font-family="Helvetica" font-size="17" textLength="324">managed_kubernetes_cluster_provider</text><path d="M265.5 478.539h364" style="stroke:#000d19;stroke-width:.5"/><text x="275.5" y="500.534" fill="#D9B8FF" font-family="sans-serif" font-size="14" font-weight="bold" textLength="70">endpoint</text><text x="345.5" y="500.534" fill="#D9B8FF" font-family="sans-serif" font-size="14" textLength="48">: string</text><text x="275.5" y="526.831" fill="#D9B8FF" font-family="sans-serif" font-size="14" font-weight="bold" textLength="59">version</text><text x="334.5" y="526.831" fill="#D9B8FF" font-family="sans-serif" font-size="14" textLength="48">: string</text><rect width="227" height="310.758" x="169" y="7" fill="#3D176E" rx="2.5" ry="2.5" style="stroke:#000d19;stroke-width:.5"/><circle cx="237.75" cy="26.895" r="11" fill="#ADD1B2" style="stroke:#181818;stroke-width:1"/><path d="M240.719 32.535q-.578.297-1.219.438-.64.156-1.344.156-2.5 0-3.828-1.64-1.312-1.657-1.312-4.782t1.312-4.781q1.328-1.656 3.828-1.656.703 0 1.344.156.656.156 1.219.453v2.719q-.625-.578-1.219-.844-.594-.281-1.219-.281-1.344 0-2.031 1.078-.687 1.062-.687 3.156t.687 3.172q.688 1.062 2.031 1.062.625 0 1.219-.265.594-.281 1.219-.86z"/><text x="263.25" y="32.78" fill="#D9B8FF" font-family="Helvetica" font-size="17" textLength="71">resource</text><path d="M170 46.789h225" style="stroke:#000d19;stroke-width:.5"/><text x="180" y="68.784" fill="#D9B8FF" font-family="sans-serif" font-size="14" font-weight="bold" textLength="29">age</text><text x="209" y="68.784" fill="#D9B8FF" font-family="sans-serif" font-size="14" textLength="66">: duration</text><text x="180" y="95.081" fill="#D9B8FF" font-family="sans-serif" font-size="14" font-weight="bold" textLength="43">atime</text><text x="223" y="95.081" fill="#D9B8FF" font-family="sans-serif" font-size="14" textLength="70">: datetime</text><text x="180" y="121.378" fill="#D9B8FF" font-family="sans-serif" font-size="14" font-weight="bold" textLength="43">ctime</text><text x="223" y="121.378" fill="#D9B8FF" font-family="sans-serif" font-size="14" textLength="70">: datetime</text><text x="180" y="147.675" fill="#D9B8FF" font-family="sans-serif" font-size="14" font-weight="bold" textLength="14">id</text><text x="194" y="147.675" fill="#D9B8FF" font-family="sans-serif" font-size="14" textLength="48">: string</text><text x="180" y="173.972" fill="#D9B8FF" font-family="sans-serif" font-size="14" font-weight="bold" textLength="33">kind</text><text x="213" y="173.972" fill="#D9B8FF" font-family="sans-serif" font-size="14" textLength="48">: string</text><text x="180" y="200.269" fill="#D9B8FF" font-family="sans-serif" font-size="14" font-weight="bold" textLength="90">last_access</text><text x="270" y="200.269" fill="#D9B8FF" font-family="sans-serif" font-size="14" textLength="66">: duration</text><text x="180" y="226.565" fill="#D9B8FF" font-family="sans-serif" font-size="14" font-weight="bold" textLength="90">last_update</text><text x="270" y="226.565" fill="#D9B8FF" font-family="sans-serif" font-size="14" textLength="66">: duration</text><text x="180" y="252.862" fill="#D9B8FF" font-family="sans-serif" font-size="14" font-weight="bold" textLength="48">mtime</text><text x="228" y="252.862" fill="#D9B8FF" font-family="sans-serif" font-size="14" textLength="70">: datetime</text><text x="180" y="279.159" fill="#D9B8FF" font-family="sans-serif" font-size="14" font-weight="bold" textLength="43">name</text><text x="223" y="279.159" fill="#D9B8FF" font-family="sans-serif" font-size="14" textLength="48">: string</text><text x="180" y="305.456" fill="#D9B8FF" font-family="sans-serif" font-size="14" font-weight="bold" textLength="34">tags</text><text x="214" y="305.456" fill="#D9B8FF" font-family="sans-serif" font-size="14" textLength="171">: dictionary[string, string]</text><path fill="none" d="M147.121 541.994c18.35 33.38 38.019 69.156 64.719 117.716m-73.39-133.49 3.413 18.664 10.516-5.78zm272.909 29.062A585970 585970 0 0 1 353.61 659.67m66.46-120.14-13.962 12.848 10.501 5.807z" style="stroke:#ffaf37;stroke-width:2"/><g fill="none"><path d="M196.223 334.116c-25.16 49.8-42.693 84.494-59.313 117.394" style="stroke:#ffaf37;stroke-width:2"/><path d="m204.34 318.05-13.472 13.36 10.71 5.412z" style="stroke:#ffaf37;stroke-width:2"/></g><path fill="none" d="M369.289 334.095c22.17 43.6 36.541 71.885 53.031 104.325m-61.19-120.37 2.81 18.764 10.697-5.439z" style="stroke:#ffaf37;stroke-width:2"/></svg>
